!!!OTL: ICH ARMES WELSCHES TEUFEL
!!!ARE: Europa, Mitteleuropa, Deutschland
!!!SCT: F0069
!!!YEM: Copyright 1995, estate of Helmut Schaffrath.
**kern
*ICvox
*Ivox
*M2/4
*k[]
*C:
{8G
=1
8c
8c
8G
8G
=2
8A
8A
8r}
{8E
=3
8.F
16D
8G
8G
=4
4C
8r}
{8c
=5
4c
8C
8c
=6
4c
8C}
{8E
=7
8.F
16D
8G
8G
=8
4C
8r}
{8c
=9
8c
8e
8e
8d
=10
8d
8c
8r}
{8c
=11
8d
8d
8B
8B
=12
4c}
{4e
=13
4c
4e
=14
4c
16e
16r}
{8c
=15
8d
8d
8B
8B
=16
4c
8r}
{8e
=17
8e
8g
8g
8f
=18
8f
8e
8r}
{8g
=19
8f
8f
8d
8d
=20
4e}
{4g
=21
4e
4g
=22
4e
16g
16r}
{8g
=23
8f
8f
8d
8d
=24
4e
8r}
==
!!!AGN: Scherz -, Wander - Lied
!!!ONB: ESAC (Essen Associative Code) Database: FINK
!!!AMT: simple duple
!!!AIN: vox
!!!EED: Helmut Schaffrath
!!!EEV: 1.0
*-
